packages/foundations/icons/Activities/Snowman.svg

<svg width="24" height="24" viewBox="0 0 24 24" fill="none" xmlns="http://www.w3.org/2000/svg">
<path fill-rule="evenodd" clip-rule="evenodd" d="M12 1C15.3137 1 18 3.68629 18 7C18 8.11809 17.6942 9.16474 17.1616 10.0609C17.6652 10.5359 18.0973 11.0774 18.4482 11.6672L19.4999 10.998L19.5 9C19.5 8.72386 19.7239 8.5 20 8.5C20.2455 8.5 20.4496 8.67688 20.4919 8.91012L20.5 9L20.4999 10.361L21.7316 9.57817C21.9645 9.42991 22.2736 9.49859 22.4218 9.73156C22.5536 9.93865 22.514 10.2058 22.3399 10.3668L22.2684 10.4218L21.2529 11.067L22.2236 11.5528C22.4432 11.6626 22.5466 11.9121 22.4802 12.1396L22.4472 12.2236C22.3374 12.4432 22.0879 12.5466 21.8604 12.4802L21.7764 12.4472L20.2689 11.693L18.9027 12.5629C19.2907 13.4747 19.5 14.47 19.5 15.5C19.5 19.6421 16.1421 23 12 23C7.85787 23 4.5 19.6421 4.5 15.5C4.5 14.4704 4.70916 13.4754 5.09687 12.5639L3.73089 11.694L2.22361 12.4472C1.97662 12.5707 1.67628 12.4706 1.55279 12.2236C1.44302 12.0041 1.50992 11.7424 1.69961 11.6002L1.7764 11.5528L2.74589 11.067L1.73157 10.4218C1.49859 10.2736 1.42992 9.96453 1.57817 9.73156C1.70995 9.52448 1.96878 9.4472 2.18829 9.53671L2.26844 9.57817L3.49989 10.362L3.5 9C3.5 8.75454 3.67688 8.55039 3.91013 8.50806L4 8.5C4.24546 8.5 4.44961 8.67688 4.49195 8.91012L4.5 9L4.49989 10.998L5.5512 11.6682C5.90212 11.0782 6.3342 10.5365 6.83717 10.0594C6.30583 9.16474 6 8.11809 6 7C6 3.68629 8.68629 1 12 1ZM15.865 11.588L15.79 11.652C15.6974 11.7275 15.6027 11.8002 15.5061 11.8699C15.4678 11.8972 15.4294 11.9242 15.3906 11.9508L15.3576 11.9735L15.3244 11.9958C15.2804 12.0249 15.2358 12.0538 15.1909 12.0821L15.126 12.1225L15.0887 12.145C14.9541 12.2259 14.8162 12.3017 14.675 12.3722C14.6561 12.3815 14.6374 12.3907 14.6187 12.3998C14.5628 12.427 14.5061 12.4535 14.4489 12.4791C14.4243 12.4899 14.3996 12.5008 14.3749 12.5114L14.2875 12.5485L14.1995 12.584L14.1446 12.605C14.1631 12.598 14.1815 12.5908 14.1995 12.584C14.113 12.6181 14.0255 12.6503 13.937 12.6804L13.8986 12.693C13.8761 12.7005 13.8535 12.7079 13.8309 12.7151C13.7848 12.7303 13.7386 12.7445 13.6921 12.7581L13.5965 12.7849C13.454 12.8245 13.3088 12.8588 13.1616 12.8876C13.109 12.8976 13.0563 12.9072 13.0035 12.9162C12.9583 12.9241 12.9126 12.9312 12.8667 12.9379C12.8364 12.942 12.8064 12.9461 12.7764 12.95C12.7177 12.9578 12.6584 12.9646 12.5988 12.9705C12.5693 12.9733 12.5403 12.9759 12.5113 12.9784C12.4577 12.983 12.4033 12.9869 12.3487 12.99L12.2469 12.994H12.2399L12.1747 12.9975L12.1459 12.997L12.2349 12.994L12 13L12.1459 12.997L12.1254 12.9987L12 13H10.5C10.2517 13 10.0498 13.1743 10.008 13.4082L10 13.4984V16.5C10 17.0523 9.55229 17.5 9 17.5C8.48717 17.5 8.0645 17.114 8.00673 16.6166L8 16.5V13.4984C8 12.8984 8.21027 12.3486 8.56144 11.9184L8.4649 11.8485L8.39489 11.795L8.23089 11.668L8.33464 11.7509L8.407 11.8057C8.34506 11.7593 8.28405 11.7118 8.224 11.6631L8.21789 11.658L8.22489 11.663L8.21089 11.652L8.20693 11.6495L8.134 11.588L8.02706 11.696C7.17822 12.5815 6.64234 13.7313 6.52459 14.9775L6.50579 15.246L6.5 15.5C6.5 18.5376 8.96244 21 12 21C15.0376 21 17.5 18.5376 17.5 15.5C17.5 14.1449 17.0072 12.8732 16.1493 11.889L15.9729 11.696L15.865 11.588ZM12 17C12.5523 17 13 17.4477 13 18C13 18.5523 12.5523 19 12 19C11.4477 19 11 18.5523 11 18C11 17.4477 11.4477 17 12 17ZM12 14C12.5523 14 13 14.4477 13 15C13 15.5523 12.5523 16 12 16C11.4477 16 11 15.5523 11 15C11 14.4477 11.4477 14 12 14ZM12.6115 7.20908L12.6709 7.261L12.7162 7.31634C12.8549 7.51717 12.8852 7.81625 12.7781 8.03044L12 9.58658L11.2219 8.03044C11.1147 7.81594 11.1448 7.51735 11.2837 7.31643L11.3289 7.26L11.3886 7.20898C11.7474 6.93012 12.2532 6.93052 12.6115 7.20908ZM14 5C14.5523 5 15 5.44772 15 6C15 6.55228 14.5523 7 14 7C13.4477 7 13 6.55228 13 6C13 5.44772 13.4477 5 14 5ZM10 5C10.5523 5 11 5.44772 11 6C11 6.55228 10.5523 7 10 7C9.44772 7 9 6.55228 9 6C9 5.44772 9.44772 5 10 5ZM12.6369 10.949L12.6549 10.946L12.6449 10.948L12.6625 10.9452L12.7059 10.937L12.7479 10.929L12.8906 10.9002C13.7314 10.7083 14.4903 10.2461 15.0689 9.56672L15.0501 9.58801C15.6426 8.89042 16 7.98695 16 7C16 4.79086 14.2091 3 12 3C9.79086 3 8 4.79086 8 7C8 7.99579 8.36387 8.90659 8.96591 9.60669L9.10771 9.76326L9.25665 9.91129L9.25989 9.915L9.29867 9.95008L9.27689 9.93L9.32289 9.972L9.33318 9.98164L9.39337 10.0341L9.42289 10.059L9.42389 10.06L9.43089 10.066L9.43989 10.073L9.47889 10.106L9.49072 10.1152L9.56781 10.1759L9.62589 10.219L9.64641 10.2346C9.78591 10.3363 9.93223 10.4292 10.0846 10.5124L10.1622 10.5538L10.2269 10.586L10.2409 10.5934L10.2782 10.6118L10.3249 10.633L10.3473 10.6437L10.3569 10.648L10.3479 10.643L10.3619 10.65L10.3781 10.6578C10.4375 10.6841 10.4975 10.709 10.5582 10.7324L10.5514 10.7296L10.6019 10.748L10.7217 10.7915C10.7767 10.81 10.8322 10.8273 10.8881 10.8435L11.057 10.8882L11.1359 10.905L11.2269 10.924L11.1659 10.912L11.2248 10.9249L11.2719 10.933L11.267 10.933L11.3629 10.949L11.3749 10.951L11.3619 10.949L11.373 10.9511L11.4509 10.962L11.5549 10.975L11.5739 10.977L11.591 10.9793C11.6282 10.9831 11.6654 10.9864 11.7028 10.9891L11.563 10.9764C11.6345 10.9842 11.7066 10.9901 11.7792 10.994L12 11C12.0739 11 12.1475 10.998 12.2207 10.994L12.3289 10.986L12.297 10.9891L12.4073 10.9795L12.4149 10.978L12.5167 10.9669L12.4377 10.9762L12.5505 10.9623L12.5849 10.956L12.6149 10.952L12.6241 10.9516L12.6339 10.95L12.6449 10.948L12.6369 10.949L12.6339 10.95L12.6149 10.952L12.6059 10.953L12.6369 10.949Z" fill="#3D474D"/>
</svg>

<svg width="24" height="24" fill="none" xmlns="http://www.w3.org/2000/svg"><path fill-rule="evenodd" clip-rule="evenodd" d="M12 1a6 6 0 015.162 9.06 7.43 7.43 0 011.286 1.607l1.052-.669V9a.5.5 0 01.992-.09L20.5 9v1.361l1.232-.783a.5.5 0 01.608.789l-.072.055-1.015.645.97.486a.5.5 0 01.257.587l-.033.084a.5.5 0 01-.587.256l-.084-.033-1.507-.754-1.366.87a7.5 7.5 0 11-13.806.001l-1.366-.87-1.507.753A.5.5 0 011.7 11.6l.076-.047.97-.486-1.014-.645a.5.5 0 01.456-.885l.08.041 1.232.784V9a.5.5 0 01.41-.492L4 8.5a.5.5 0 01.492.41L4.5 9v1.998l1.051.67c.351-.59.783-1.131 1.286-1.609A6 6 0 0112 1zm3.865 10.588l-.075.064a6.069 6.069 0 01-.4.299l-.032.022-.034.023-.133.086-.065.04-.037.023a6.043 6.043 0 01-.64.334l-.074.032-.088.038-.088.035-.054.021.055-.021a5.866 5.866 0 01-.263.096l-.038.013a5.346 5.346 0 01-.207.065l-.095.027a5.745 5.745 0 01-.73.153l-.09.012a5.352 5.352 0 01-.428.04l-.102.004h-.007l-.065.004-.03-.001.09-.003L12 13l.146-.003-.02.002L12 13h-1.5a.495.495 0 00-.492.408l-.008.09V16.5a1 1 0 01-1.993.117L8 16.5v-3.002c0-.6.21-1.15.561-1.58l-.096-.07-.07-.053-.164-.127.104.083.072.055a6.03 6.03 0 01-.183-.143l-.006-.005.007.005-.014-.011-.004-.002-.073-.062-.107.108a5.48 5.48 0 00-1.502 3.281l-.02.269-.005.254a5.5 5.5 0 109.65-3.611l-.177-.193-.108-.108zM12 17a1 1 0 110 2 1 1 0 010-2zm0-3a1 1 0 110 2 1 1 0 010-2zm.611-6.79l.06.051.045.055c.139.201.17.5.062.714L12 9.587l-.778-1.557a.741.741 0 01.062-.714l.045-.056.06-.051a.999.999 0 011.223 0zM14 5a1 1 0 110 2 1 1 0 010-2zm-4 0a1 1 0 110 2 1 1 0 010-2zm2.637 5.949l.018-.003-.01.002.018-.003.043-.008.042-.008.143-.029c.84-.192 1.6-.654 2.178-1.333l-.019.021a4 4 0 10-6.084.019l.142.156.149.148.003.004.039.035-.022-.02.046.042.01.01.06.052.03.025v.001l.008.006.009.007.039.033.012.01.077.06.058.043.02.016c.14.101.286.194.439.277l.077.042.065.032.014.007.037.019.047.021.022.01.01.005-.01-.005.015.007.016.008c.06.026.12.051.18.074l-.007-.002.05.018.12.043c.056.019.111.036.167.053l.169.044.079.017.09.019-.06-.012.059.013.047.008h-.005l.096.016.012.002-.013-.002.011.002.078.011.104.013.019.002.017.002.112.01-.14-.013c.071.008.144.014.216.018L12 11c.074 0 .148-.002.22-.006l.109-.008-.032.003.11-.01.008-.001.102-.011-.08.01.114-.015.034-.006.03-.004h.01l.009-.002.01-.002-.007.001-.003.001-.02.002-.008.001.03-.004z" fill="#3D474D"/></svg>
